X:1
T:Village Vespers, 87.87.77
T:Village Vespers, 87.87.77
T:Timothy Richard Matthews, 1873
T:Public Domain Courtesy of the Cyber Hymnal™
C:Timothy Richard Matthews, 1873
Z:Public Domain
Z:Courtesy of the Cyber Hymnal™
%%score ( 1 2 ) ( 3 4 )
L:1/8
Q:1/4=125
M:none
K:G
V:1 treble 
V:2 treble 
V:3 bass 
V:4 bass 
V:1
|: G4 [GA]2 | [GB]4 [DG]2 | [FA]2 [DG]2 [FA]2 | [GB]4 [DG]2 | [EG]4 [EA]2 | [^DB]4 [B,G]2 | %6
 A3 G [CA]2 | [B,G]6 :| [DB]4 [^DB]2 | [EB]4 [DG]2 | A2 G2 [EA]2 | [^DB]6 | [^DB]4 [FB]2 | %13
 [EB]4 [EA]2 | [DG]2 [GB]2 [FA]2 | G6 |] %16
V:2
|: G4 x2 | x6 | x6 | x6 | x6 | x6 | C4 x2 | x6 :| x6 | x6 | E4 x2 | x6 | x6 | x6 | x6 | G6 |] %16
V:3
|: [G,B,]4 [G,C]2 | [G,D]4 [G,B,]2 | D4 [D,D]2 | [G,,D]4 [G,B,]2 | [E,B,]4 [C,A,]2 | %5
 [B,,A,]4 [E,G,]2 | E,4 [D,F,]2 | [G,,G,]6 :| G,4 [F,A,]2 | [E,G,]4 [B,,G,]2 | [C,E,]4 [C,E,]2 | %11
 [B,,F,]6 | B,4 [A,B,]2 | [G,B,]4 [C,C]2 | B,2 D2 [D,C]2 | [G,,B,]6 |] %16
V:4
|: x6 | x6 | D,2 B,,2 x2 | x6 | x6 | x6 | C,2 A,,2 x2 | x6 :| G,4 x2 | x6 | x6 | x6 | B,4 x2 | x6 | %14
 D,4 x2 | x6 |] %16

